src/assets/3-users/icn_Approval_unselected@1.5x.svg

<?xml version="1.0" encoding="UTF-8"?>
<svg width="80px" height="77px" viewBox="0 0 80 77" version="1.1" xmlns="http://www.w3.org/2000/svg" xmlns:xlink="http://www.w3.org/1999/xlink">
    <!-- Generator: sketchtool 63.1 (101010) - https://sketch.com -->
    <title>D8873945-401E-472E-84DC-57CC5226B54F@1.5x</title>
    <desc>Created with sketchtool.</desc>
    <defs>
        <polygon id="path-1" points="0 76.761898 79.1252979 76.761898 79.1252979 0 0 0"></polygon>
    </defs>
    <g id="Design" stroke="none" stroke-width="1" fill="none" fill-rule="evenodd" opacity="0.200000003">
        <g id="01_Internapp_Landing" transform="translate(-904.000000, -485.000000)">
            <g id="Group-3" transform="translate(852.000000, 365.000000)">
                <g id="icn_Approval_unselected" transform="translate(52.000000, 120.000000)">
                    <path d="M40.0338889,18.1349995 C45.1278888,18.1349995 49.2732887,22.2794994 49.2732887,27.3743993 C49.2732887,32.4692991 45.1278888,36.613799 40.0338889,36.613799 C34.9389891,36.613799 30.7944892,32.4692991 30.7944892,27.3743993 C30.7944892,22.2794994 34.9398891,18.1349995 40.0338889,18.1349995 M40.0338889,38.863799 C46.3689888,38.863799 51.5232886,33.7094991 51.5232886,27.3743993 C51.5232886,21.0392994 46.3689888,15.8849996 40.0338889,15.8849996 C33.6987891,15.8849996 28.5453892,21.0392994 28.5453892,27.3743993 C28.5453892,33.7094991 33.6987891,38.863799 40.0338889,38.863799" id="Fill-1" fill="#B2B2B2"></path>
                    <path d="M58.5647984,74.512438 L51.5330986,74.512438 L51.5330986,63.6584383 L49.2830987,63.6584383 L49.2830987,74.512438 L29.9141992,74.512438 L29.9141992,63.6584383 L27.6641993,63.6584383 L27.6641993,74.512438 L21.5036994,74.512438 L21.5036994,60.9944384 C21.5036994,54.7853385 24.5834993,49.2935387 29.2850992,45.9275388 L40.0931989,65.1677383 L49.9625987,45.3740388 C55.1240985,48.6671387 58.5647984,54.4316386 58.5647984,60.9944384 L58.5647984,74.512438 Z M22.7240994,49.5167387 C22.4891994,49.8605387 21.4235994,51.7685386 21.4235994,51.7685386 C20.0393995,54.5504386 19.2545995,57.6824385 19.2545995,60.9953384 L19.2545995,76.761538 L19.5992995,76.761538 L60.6491984,76.761538 L60.8147984,76.761538 L60.8147984,60.9944384 C60.8147984,57.5663385 59.9309984,54.3551386 58.5008985,51.4769386 C58.1975985,50.8667387 57.0644985,49.1018387 57.0644985,49.1018387 C53.3042986,43.7315388 47.0717988,40.2134389 40.0337989,40.2134389 C32.8373991,40.2134389 26.4878993,43.8926388 22.7573994,49.4663387 L22.7240994,49.5167387 Z M43.0559989,42.7316389 L41.5691989,45.8042388 L37.766699,45.8042388 L36.227699,42.8594389 C37.457099,42.6011389 38.729699,42.4634389 40.0346989,42.4634389 C41.0651989,42.4643389 42.0695989,42.5705389 43.0559989,42.7316389 L43.0559989,42.7316389 Z M44.7344988,50.8208387 L43.4843988,47.0102388 L45.3077988,43.2392389 C46.2374988,43.5173388 47.1293988,43.8728388 47.9924987,44.2859388 L44.7344988,50.8208387 Z M37.915199,48.0551387 L41.4593989,48.0551387 L43.3061989,53.6846386 L39.9752989,60.3644384 L36.199799,53.6441386 L37.915199,48.0551387 Z M35.872199,47.0417388 L34.6778991,50.9342387 L31.1858992,44.7179388 C32.0840992,44.2274388 33.0344991,43.8251388 34.0145991,43.4867388 L35.872199,47.0417388 Z" id="Fill-3" fill="#B2B2B2"></path>
                    <mask id="mask-2" fill="white">
                        <use xlink:href="#path-1"></use>
                    </mask>
                    <g id="Clip-6"></g>
                    <path d="M7.94249979,10.4993997 L69.1424982,10.4993997 L69.1424982,7.04969981 L7.94249979,7.04969981 L7.94249979,10.4993997 Z M69.1424982,29.4740992 L71.3924981,29.4740992 L71.3924981,4.79969987 L5.69249985,4.79969987 L5.69249985,30.5243992 L7.94249979,30.5243992 L7.94249979,12.7493997 L69.1424982,12.7493997 L69.1424982,29.4740992 Z" id="Fill-5" fill="#FFFFFF" mask="url(#mask-2)"></path>
                    <polygon id="Fill-7" fill="#FFFFFF" mask="url(#mask-2)" points="10.0052997 9.71189974 12.0887997 9.71189974 12.0887997 7.4618998 10.0052997 7.4618998"></polygon>
                    <polygon id="Fill-8" fill="#FFFFFF" mask="url(#mask-2)" points="13.6052996 9.71189974 15.6887996 9.71189974 15.6887996 7.4618998 13.6052996 7.4618998"></polygon>
                    <polygon id="Fill-9" fill="#FFFFFF" mask="url(#mask-2)" points="17.2052995 9.71189974 19.2887995 9.71189974 19.2887995 7.4618998 17.2052995 7.4618998"></polygon>
                    <polygon id="Fill-10" fill="#FFFFFF" mask="url(#mask-2)" points="64.9052983 9.71189974 66.9887982 9.71189974 66.9887982 7.4618998 64.9052983 7.4618998"></polygon>
                    <polygon id="Fill-11" fill="#FFFFFF" mask="url(#mask-2)" points="27.6677093 17.3993395 27.6677093 15.1493396 9.92240974 15.1493396 9.92240974 26.0987393 25.7174093 26.0987393 25.7174093 23.8487394 12.1724097 23.8487394 12.1724097 17.3993395"></polygon>
                    <polygon id="Fill-12" fill="#FFFFFF" mask="url(#mask-2)" points="64.8225883 23.8487394 54.2178886 23.8487394 54.2178886 26.0987393 67.0725882 26.0987393 67.0725882 15.1493396 51.3684886 15.1493396 51.3684886 17.3993395 64.8225883 17.3993395"></polygon>
                    <path d="M69.9756281,43.3499389 L73.0248281,43.3499389 C74.637628,43.3499389 75.949828,42.0377389 75.949828,40.4249389 L75.949828,2.92463992 C75.949828,1.31273997 74.637628,-0.00035999999 73.0248281,-0.00035999999 L4.32332989,-0.00035999999 C2.71052993,-0.00035999999 1.39832996,1.31273997 1.39832996,2.92463992 L1.39832996,40.4249389 C1.39832996,42.0377389 2.71052993,43.3499389 4.32332989,43.3499389 L9.09872976,43.3499389 L8.20772978,41.0999389 L4.32332989,41.0999389 C3.9507299,41.0999389 3.6483299,40.7966389 3.6483299,40.4249389 L3.6483299,2.92463992 C3.6483299,2.55203993 3.9507299,2.24963994 4.32332989,2.24963994 L73.0239281,2.24963994 C73.3956281,2.24963994 73.698928,2.55203993 73.698928,2.92463992 L73.698928,40.4249389 C73.698928,40.7966389 73.3956281,41.0999389 73.0239281,41.0999389 L70.8936281,41.0999389 L69.9756281,43.3499389 Z" id="Fill-13" fill="#FFFFFF" mask="url(#mask-2)"></path>
                    <path d="M22.6834194,49.6147487 C20.6449195,48.7210487 18.4156195,48.2485487 16.1755196,48.2485487 C7.25561981,48.2485487 -0.000179999995,55.5061485 -0.000179999995,64.4251483 L-0.000179999995,76.761448 L18.5758195,76.761448 L18.5758195,74.513248 L9.36431975,74.513248 L9.36431975,74.512348 L9.36431975,67.1242482 L7.11431981,67.1242482 L7.11431981,74.512348 L2.25071994,74.512348 L2.25071994,64.4260483 C2.25071994,57.1279485 7.89731979,51.1330486 15.0514196,50.5579487 L15.0514196,62.5054483 L17.3014195,62.5054483 L17.3014195,50.5669487 C18.7693195,50.6830487 20.1877195,51.0250486 21.5386194,51.5920486 L22.6834194,49.6147487 Z" id="Fill-14" fill="#3D4172" mask="url(#mask-2)"></path>
                    <path d="M62.9504983,45.4944588 C59.1947984,45.4944588 56.1392985,42.4380589 56.1392985,38.683259 C56.1392985,34.9275591 59.1956984,31.8720592 62.9504983,31.8720592 C66.7052982,31.8720592 69.7598984,34.9284591 69.7598984,38.683259 C69.7607982,42.4380589 66.7052982,45.4944588 62.9504983,45.4944588 M16.1504996,31.8720592 C19.9061995,31.8720592 22.9607994,34.9284591 22.9607994,38.683259 C22.9607994,42.4380589 19.9052995,45.4944588 16.1504996,45.4944588 C12.3956997,45.4944588 9.34019955,42.4380589 9.34019955,38.683259 C9.33929975,34.9275591 12.3947997,31.8720592 16.1504996,31.8720592 M8.79209977,43.9491588 C10.4381997,46.2432588 13.1192997,47.7444587 16.1504996,47.7444587 C21.1463994,47.7444587 25.2107993,43.6782588 25.2107993,38.683259 C25.2107993,33.6873591 21.1463994,29.6220592 16.1504996,29.6220592 C11.1545997,29.6220592 7.09019981,33.6873591 7.09019981,38.683259 C7.09019981,39.7407589 7.28189981,40.7532589 7.6184998,41.6991589 C7.6184998,41.6991589 8.35289978,43.3848589 8.79209977,43.9491588 M71.4833981,41.6991589 C71.8190981,40.7532589 72.0107981,39.7407589 72.0107981,38.683259 C72.0107981,33.6873591 67.9463982,29.6220592 62.9513983,29.6220592 C57.9545985,29.6220592 53.8901986,33.6873591 53.8901986,38.683259 C53.8901986,43.6782588 57.9554985,47.7444587 62.9513983,47.7444587 C65.9816983,47.7444587 68.6636982,46.2432588 70.3088981,43.9491588 C70.8110981,43.3110589 71.4833981,41.6991589 71.4833981,41.6991589" id="Fill-15" fill="#3D4172" mask="url(#mask-2)"></path>
                    <path d="M79.1250279,76.761538 L79.1250279,64.4261383 C79.1259279,55.5071385 71.8692281,48.2495387 62.9502283,48.2495387 C60.9648284,48.2495387 59.0442284,48.6230387 57.2145285,49.3196387 L58.3935285,51.2726386 C59.6895284,50.8226387 61.0422284,50.5769387 62.4300283,50.5274387 L62.4300283,62.5055383 L64.6800283,62.5055383 L64.6800283,50.6192387 C71.5434281,51.4751386 76.875928,57.3341385 76.875928,64.4261383 L76.875928,74.512438 L71.3922281,74.512438 L71.3922281,67.1243382 L69.1422282,67.1243382 L69.1422282,74.512438 L61.1079284,74.512438 L61.1349284,76.761538 L79.1250279,76.761538" id="Fill-16" fill="#3D4172" mask="url(#mask-2)"></path>
                </g>
            </g>
        </g>
    </g>
</svg>

<svg xmlns="http://www.w3.org/2000/svg" width="79.125" height="76.762" viewBox="0 0 79.125 76.762"><defs><style>.a{fill:rgba(178,178,178,0.25);}.a,.b,.c{fill-rule:evenodd;}.b{fill:rgba(178,178,178,0.2);}.c{fill:rgba(61,65,114,0.2);}</style></defs><g transform="translate(0 0)"><g transform="translate(-904 -485)"><g transform="translate(852 365)"><g transform="translate(52 120)"><path class="a" d="M40.034,18.135a9.239,9.239,0,1,1-9.239,9.239,9.25,9.25,0,0,1,9.239-9.239m0,20.729A11.489,11.489,0,1,0,28.545,27.374,11.5,11.5,0,0,0,40.034,38.864"/><path class="a" d="M58.565,74.512H51.533V63.658h-2.25V74.512H29.914V63.658h-2.25V74.512H21.5V60.994a18.509,18.509,0,0,1,7.781-15.067l10.808,19.24,9.869-19.794a18.521,18.521,0,0,1,8.6,15.62Zm-35.841-25c-.235.344-1.3,2.252-1.3,2.252A20.656,20.656,0,0,0,19.255,61V76.761h41.56V60.994A21.326,21.326,0,0,0,58.5,51.477c-.3-.61-1.436-2.375-1.436-2.375a20.758,20.758,0,0,0-34.307.365Zm20.332-6.785L41.569,45.8h-3.8l-1.539-2.945a18.494,18.494,0,0,1,3.807-.4,18.789,18.789,0,0,1,3.021.268Zm1.679,8.089-1.25-3.811,1.823-3.771a18.483,18.483,0,0,1,2.685,1.047Zm-6.819-2.766h3.544l1.847,5.63-3.331,6.68L36.2,53.644Zm-2.043-1.013-1.194,3.893-3.492-6.216a18.461,18.461,0,0,1,2.829-1.231Z"/><path class="b" d="M7.943,10.5h61.2V7.05H7.943Zm61.2,18.975h2.25V4.8H5.693V30.524h2.25V12.749h61.2Z"/><path class="b" d="M10.005,9.712h2.084V7.462H10.005Z"/><path class="b" d="M13.605,9.712h2.083V7.462H13.605Z"/><path class="b" d="M17.205,9.712h2.083V7.462H17.205Z"/><path class="b" d="M64.905,9.712h2.084V7.462H64.905Z"/><path class="b" d="M27.668,17.4v-2.25H9.922V26.1H25.717v-2.25H12.172V17.4Z"/><path class="b" d="M64.823,23.849h-10.6V26.1H67.073V15.149h-15.7V17.4H64.823Z"/><path class="b" d="M69.976,43.35h3.049a2.928,2.928,0,0,0,2.925-2.925V2.925A2.929,2.929,0,0,0,73.025,0H4.323A2.929,2.929,0,0,0,1.4,2.925v37.5A2.928,2.928,0,0,0,4.323,43.35H9.1L8.208,41.1H4.323a.676.676,0,0,1-.675-.675V2.925a.675.675,0,0,1,.675-.675h68.7a.676.676,0,0,1,.675.675v37.5a.676.676,0,0,1-.675.675h-2.13Z"/><path class="c" d="M22.683,49.615A16.177,16.177,0,0,0,0,64.425V76.761H18.576V74.513H9.364V67.124H7.114v7.388H2.251V64.426a13.935,13.935,0,0,1,12.8-13.868V62.505H17.3V50.567a13.688,13.688,0,0,1,4.237,1.025Z"/><path class="c" d="M62.951,45.494a6.811,6.811,0,1,1,6.809-6.811,6.82,6.82,0,0,1-6.809,6.811M16.15,31.872a6.811,6.811,0,1,1-6.81,6.811,6.819,6.819,0,0,1,6.81-6.811M8.792,43.949A9.146,9.146,0,1,0,7.619,41.7a16.017,16.017,0,0,0,1.174,2.25M71.483,41.7a9.082,9.082,0,1,0-1.174,2.25,13.559,13.559,0,0,0,1.174-2.25"/><path class="c" d="M79.125,76.761V64.426A16.133,16.133,0,0,0,57.215,49.32l1.179,1.953a13.758,13.758,0,0,1,4.036-.745V62.506h2.25V50.619a13.938,13.938,0,0,1,12.2,13.807V74.512H71.392V67.124h-2.25v7.388H61.108l.027,2.249h17.99"/></g></g></g></g></svg>
